svgs/hema.svg

<svg xmlns="http://www.w3.org/2000/svg" viewBox="0 0 192 192"><path d="M16 94.792V46.251h7.045v18.897c0 22 .058 22.109 11.101 20.891l6.51-.719.293-19.534.292-19.535h6.963v97.081h-7.045v-42.621H23.045v42.621H16Zm41.261 0V46.251h27.173v16.575H64.196l.307 11.247.306 11.247 8.303.688 8.303.688v14.015H64.306v28.414h20.128v14.207H57.261Zm35.224 0V46.251h9.919l2.18 13.615a7610.822 7610.822 0 0 1 5.199 33.15c1.661 10.744 3.332 19.534 3.715 19.534.382 0 2.981-14.651 5.776-32.557l5.08-32.558 5.2-.716 5.199-.716v97.329h-7.045v-34.728c0-19.101-.332-33.948-.737-32.994-.406.954-3.012 16.316-5.792 34.136-4.524 28.998-5.319 32.475-7.567 33.095-2.372.653-2.821-1.265-8.046-34.334l-5.533-35.026-.279 34.926-.278 34.925h-6.991Zm47.767 44.558c.405-2.368 3.006-19.755 5.78-38.639 2.774-18.883 5.723-38.917 6.555-44.52 1.474-9.934 1.612-10.169 5.549-9.471l4.038.715 6.277 42.621c3.453 23.441 6.598 45.018 6.988 47.948.642 4.812.378 5.328-2.727 5.328-3.082 0-3.603-.99-5.035-9.569l-1.598-9.57-8.28.69-8.28.69-1.177 8.288c-1.036 7.294-1.635 8.378-5.001 9.041-3.355.661-3.734.225-3.089-3.552Zm23.155-34.103c-3.258-24.152-5.365-35.998-5.861-32.95-2.087 12.825-5.685 36.232-5.685 36.983 0 .497 2.748.902 6.106.902 5.73 0 6.065-.303 5.44-4.935Z"/></svg>

<svg
    xmlns="http://www.w3.org/2000/svg"
    viewBox="0 0 192 192"
    id="vector">
    <g id="group">
        <path
            id="path_6"
            d="M 16 94.792 L 16 46.251 L 23.045 46.251 L 23.045 65.148 C 23.045 87.148 23.103 87.257 34.146 86.039 L 40.656 85.32 L 40.949 65.786 L 41.241 46.251 L 48.204 46.251 L 48.204 143.332 L 41.159 143.332 L 41.159 100.711 L 23.045 100.711 L 23.045 143.332 L 16 143.332 Z M 57.261 94.792 L 57.261 46.251 L 84.434 46.251 L 84.434 62.826 L 64.196 62.826 L 64.503 74.073 L 64.809 85.32 L 73.112 86.008 L 81.415 86.696 L 81.415 100.711 L 64.306 100.711 L 64.306 129.125 L 84.434 129.125 L 84.434 143.332 L 57.261 143.332 Z M 92.485 94.792 L 92.485 46.251 L 102.404 46.251 L 104.584 59.866 C 105.783 67.354 108.123 82.272 109.783 93.016 C 111.444 103.76 113.115 112.55 113.498 112.55 C 113.88 112.55 116.479 97.899 119.274 79.993 L 124.354 47.435 L 129.554 46.719 L 134.753 46.003 L 134.753 143.332 L 127.708 143.332 L 127.708 108.604 C 127.708 89.503 127.376 74.656 126.971 75.61 C 126.565 76.564 123.959 91.926 121.179 109.746 C 116.655 138.744 115.86 142.221 113.612 142.841 C 111.24 143.494 110.791 141.576 105.566 108.507 L 100.033 73.481 L 99.754 108.407 L 99.476 143.332 L 92.485 143.332 Z M 140.252 139.35 C 140.657 136.982 143.258 119.595 146.032 100.711 C 148.806 81.828 151.755 61.794 152.587 56.191 C 154.061 46.257 154.199 46.022 158.136 46.72 L 162.174 47.435 L 168.451 90.056 C 171.904 113.497 175.049 135.074 175.439 138.004 C 176.081 142.816 175.817 143.332 172.712 143.332 C 169.63 143.332 169.109 142.342 167.677 133.763 L 166.079 124.193 L 157.799 124.883 L 149.519 125.573 L 148.342 133.861 C 147.306 141.155 146.707 142.239 143.341 142.902 C 139.986 143.563 139.607 143.127 140.252 139.35 Z M 163.407 105.247 C 160.149 81.095 158.042 69.249 157.546 72.297 C 155.459 85.122 151.861 108.529 151.861 109.28 C 151.861 109.777 154.609 110.182 157.967 110.182 C 163.697 110.182 164.032 109.879 163.407 105.247 Z"
            fill="#000000"
            stroke-width="12"/>
    </g>
</svg>
